X:1
T:The Ould Triangle
M:4/4
L:1/8
K:G
E-F| G3 F E4| D6 d2| d3 B d3- B| d6| Bd| e2d-c B4| G6 AB| A2 G2 E4-|\
 E4 z2| FF| G3 F E4| D6 d2| d3 B d2- B2| d4 B2| d2| e2d-c B/2- A3/2(2G3.99999962500005/5.99999925000009G3.99999962500005/5.99999925000009A3.99999962500005/5.99999925000009 B3.99999962500005/5.99999925000009|\
 A A3 G G3-| G4 z2||
